src/Pure/16/symbolic/actions/xapp-text-case-symbolic.svg

<?xml version="1.0" encoding="UTF-8" standalone="no"?>
<svg
   width="16"
   height="16"
   version="1.1"
   id="svg1"
   sodipodi:docname="xapp-text-case-symbolic.svg"
   inkscape:version="1.4.2 (ebf0e940d0, 2025-05-08)"
   xmlns:inkscape="http://www.inkscape.org/namespaces/inkscape"
   xmlns:sodipodi="http://sodipodi.sourceforge.net/DTD/sodipodi-0.dtd"
   xmlns="http://www.w3.org/2000/svg"
   xmlns:svg="http://www.w3.org/2000/svg">
  <defs
     id="defs1">
     <style
        id="current-color-scheme"
        type="text/css">
        .ColorScheme-Text { color:#363636; }
     </style>
  </defs>
  <sodipodi:namedview
     id="namedview1"
     pagecolor="#ffffff"
     bordercolor="#000000"
     borderopacity="0.25"
     inkscape:showpageshadow="2"
     inkscape:pageopacity="0.0"
     inkscape:pagecheckerboard="0"
     inkscape:deskcolor="#d1d1d1"
     inkscape:zoom="49.6875"
     inkscape:cx="8"
     inkscape:cy="8"
     inkscape:window-width="1920"
     inkscape:window-height="1010"
     inkscape:window-x="0"
     inkscape:window-y="0"
     inkscape:window-maximized="1"
     inkscape:current-layer="svg1" />
  <path
     id="path1"
     style="fill:currentColor;fill-opacity:1"
     class="ColorScheme-Text"
     d="M 4.7890625 2 L 1 13 L 2.90625 13 L 3.5859375 11 L 7.4160156 11 L 8.1035156 13 L 10 13 L 6.2109375 2 L 4.7890625 2 z M 5.4980469 5.4375 L 6.6835938 9 L 4.3144531 9 L 5.4980469 5.4375 z M 11.5 8 L 11.5 9 L 14.5 9 C 14.715 9 15 9.305 15 9.5 L 15 10 L 12.5 10 C 12.04 10 11.63 10.190375 11.375 10.484375 C 11.12 10.774375 11 11.14 11 11.5 C 11 11.86 11.136625 12.225625 11.390625 12.515625 C 11.646625 12.805625 12.045 13 12.5 13 L 16 13 L 16 9.5 C 16 8.685 15.34 8 14.5 8 L 11.5 8 z M 12.5 11 L 15 11 L 15 12 L 12.5 12 C 12.3 12 12.216625 11.943375 12.140625 11.859375 A 0.568 0.568 0 0 1 12 11.5 C 12 11.36 12.05 11.226625 12.125 11.140625 C 12.2 11.060625 12.29 11 12.5 11 z " />
</svg>

<svg xmlns="http://www.w3.org/2000/svg" width="16" height="16"><path d="M4.79 2L1 13h1.906l.68-2h3.83l.688 2H10L6.21 2zm.708 3.438L6.684 9h-2.37zM11.5 8v1h3c.215 0 .5.305.5.5v.5h-2.5c-.46 0-.87.19-1.125.484-.255.29-.375.656-.375 1.016s.136.726.39 1.016c.256.29.655.484 1.11.484H16V9.5c0-.815-.66-1.5-1.5-1.5zm1 3H15v1h-2.5c-.2 0-.284-.056-.36-.14a.568.568 0 0 1-.14-.36c0-.14.05-.274.125-.36.075-.08.165-.14.375-.14z" fill="#363636"/></svg>
